static/img/kroki/6ba195415594feb4168938131edef1d6.svg

<?xml version="1.0" encoding="us-ascii" standalone="no"?><svg xmlns="http://www.w3.org/2000/svg" xmlns:xlink="http://www.w3.org/1999/xlink" contentStyleType="text/css" height="899px" preserveAspectRatio="none" style="width:422px;height:899px;" version="1.1" viewBox="0 0 422 899" width="422px" zoomAndPan="magnify"><defs/><g><!--class azure_sql_server_database_workload_group--><g id="elem_azure_sql_server_database_workload_group"><rect codeLine="23" fill="#3D176E" height="231.8672" id="azure_sql_server_database_workload_group" rx="2.5" ry="2.5" style="stroke:#000D19;stroke-width:0.5;" width="408" x="7" y="660.14"/><ellipse cx="22" cy="680.0345" fill="#ADD1B2" rx="11" ry="11" style="stroke:#181818;stroke-width:1.0;"/><path d="M24.9688,685.6752 Q24.3906,685.972 23.75,686.1127 Q23.1094,686.2689 22.4063,686.2689 Q19.9063,686.2689 18.5781,684.6283 Q17.2656,682.972 17.2656,679.847 Q17.2656,676.722 18.5781,675.0658 Q19.9063,673.4095 22.4063,673.4095 Q23.1094,673.4095 23.75,673.5658 Q24.4063,673.722 24.9688,674.0189 L24.9688,676.7377 Q24.3438,676.1595 23.75,675.8939 Q23.1563,675.6127 22.5313,675.6127 Q21.1875,675.6127 20.5,676.6908 Q19.8125,677.7533 19.8125,679.847 Q19.8125,681.9408 20.5,683.0189 Q21.1875,684.0814 22.5313,684.0814 Q23.1563,684.0814 23.75,683.8158 Q24.3438,683.5345 24.9688,682.9564 L24.9688,685.6752 Z " fill="#000000"/><text fill="#D9B8FF" font-family="Helvetica" font-size="17" lengthAdjust="spacing" textLength="366" x="41" y="685.9198">azure_sql_server_database_workload_group</text><line style="stroke:#000D19;stroke-width:0.5;" x1="8" x2="414" y1="699.9291" y2="699.9291"/><text fill="#D9B8FF" font-family="sans-serif" font-size="14" font-weight="bold" lengthAdjust="spacing" textLength="89" x="18" y="721.9242">importance</text><text fill="#D9B8FF" font-family="sans-serif" font-size="14" lengthAdjust="spacing" textLength="48" x="107" y="721.9242">: string</text><text fill="#D9B8FF" font-family="sans-serif" font-size="14" font-weight="bold" lengthAdjust="spacing" textLength="180" x="18" y="748.2211">max_resource_percent</text><text fill="#D9B8FF" font-family="sans-serif" font-size="14" lengthAdjust="spacing" textLength="44" x="198" y="748.2211">: int64</text><text fill="#D9B8FF" font-family="sans-serif" font-size="14" font-weight="bold" lengthAdjust="spacing" textLength="283" x="18" y="774.5179">max_resource_percent_per_request</text><text fill="#D9B8FF" font-family="sans-serif" font-size="14" lengthAdjust="spacing" textLength="57" x="301" y="774.5179">: double</text><text fill="#D9B8FF" font-family="sans-serif" font-size="14" font-weight="bold" lengthAdjust="spacing" textLength="176" x="18" y="800.8148">min_resource_percent</text><text fill="#D9B8FF" font-family="sans-serif" font-size="14" lengthAdjust="spacing" textLength="44" x="194" y="800.8148">: int64</text><text fill="#D9B8FF" font-family="sans-serif" font-size="14" font-weight="bold" lengthAdjust="spacing" textLength="279" x="18" y="827.1117">min_resource_percent_per_request</text><text fill="#D9B8FF" font-family="sans-serif" font-size="14" lengthAdjust="spacing" textLength="57" x="297" y="827.1117">: double</text><text fill="#D9B8FF" font-family="sans-serif" font-size="14" font-weight="bold" lengthAdjust="spacing" textLength="198" x="18" y="853.4086">query_execution_timeout</text><text fill="#D9B8FF" font-family="sans-serif" font-size="14" lengthAdjust="spacing" textLength="44" x="216" y="853.4086">: int64</text><text fill="#D9B8FF" font-family="sans-serif" font-size="14" font-weight="bold" lengthAdjust="spacing" textLength="35" x="18" y="879.7054">type</text><text fill="#D9B8FF" font-family="sans-serif" font-size="14" lengthAdjust="spacing" textLength="48" x="53" y="879.7054">: string</text></g><!--class microsoft_resource--><g id="elem_microsoft_resource"><rect codeLine="32" fill="#3D176E" height="100.3828" id="microsoft_resource" rx="2.5" ry="2.5" style="stroke:#000D19;stroke-width:0.5;" width="214" x="104" y="438.76"/><ellipse cx="125.3" cy="458.6545" fill="#ADD1B2" rx="11" ry="11" style="stroke:#181818;stroke-width:1.0;"/><path d="M128.2688,464.2952 Q127.6906,464.592 127.05,464.7327 Q126.4094,464.8889 125.7063,464.8889 Q123.2063,464.8889 121.8781,463.2483 Q120.5656,461.592 120.5656,458.467 Q120.5656,455.342 121.8781,453.6858 Q123.2063,452.0295 125.7063,452.0295 Q126.4094,452.0295 127.05,452.1858 Q127.7063,452.342 128.2688,452.6389 L128.2688,455.3577 Q127.6438,454.7795 127.05,454.5139 Q126.4563,454.2327 125.8313,454.2327 Q124.4875,454.2327 123.8,455.3108 Q123.1125,456.3733 123.1125,458.467 Q123.1125,460.5608 123.8,461.6389 Q124.4875,462.7014 125.8313,462.7014 Q126.4563,462.7014 127.05,462.4358 Q127.6438,462.1545 128.2688,461.5764 L128.2688,464.2952 Z " fill="#000000"/><text fill="#D9B8FF" font-family="Helvetica" font-size="17" lengthAdjust="spacing" textLength="158" x="145.7" y="464.5398">microsoft_resource</text><line style="stroke:#000D19;stroke-width:0.5;" x1="105" x2="317" y1="478.5491" y2="478.5491"/><text fill="#D9B8FF" font-family="sans-serif" font-size="14" font-weight="bold" lengthAdjust="spacing" textLength="35" x="115" y="500.5442">etag</text><text fill="#D9B8FF" font-family="sans-serif" font-size="14" lengthAdjust="spacing" textLength="48" x="150" y="500.5442">: string</text><text fill="#D9B8FF" font-family="sans-serif" font-size="14" font-weight="bold" lengthAdjust="spacing" textLength="144" x="115" y="526.8411">provisioning_state</text><text fill="#D9B8FF" font-family="sans-serif" font-size="14" lengthAdjust="spacing" textLength="48" x="259" y="526.8411">: string</text></g><!--class resource--><g id="elem_resource"><rect codeLine="36" fill="#3D176E" height="310.7578" id="resource" rx="2.5" ry="2.5" style="stroke:#000D19;stroke-width:0.5;" width="227" x="97.5" y="7"/><ellipse cx="166.25" cy="26.8945" fill="#ADD1B2" rx="11" ry="11" style="stroke:#181818;stroke-width:1.0;"/><path d="M169.2188,32.5352 Q168.6406,32.832 168,32.9727 Q167.3594,33.1289 166.6563,33.1289 Q164.1563,33.1289 162.8281,31.4883 Q161.5156,29.832 161.5156,26.707 Q161.5156,23.582 162.8281,21.9258 Q164.1563,20.2695 166.6563,20.2695 Q167.3594,20.2695 168,20.4258 Q168.6563,20.582 169.2188,20.8789 L169.2188,23.5977 Q168.5938,23.0195 168,22.7539 Q167.4063,22.4727 166.7813,22.4727 Q165.4375,22.4727 164.75,23.5508 Q164.0625,24.6133 164.0625,26.707 Q164.0625,28.8008 164.75,29.8789 Q165.4375,30.9414 166.7813,30.9414 Q167.4063,30.9414 168,30.6758 Q168.5938,30.3945 169.2188,29.8164 L169.2188,32.5352 Z " fill="#000000"/><text fill="#D9B8FF" font-family="Helvetica" font-size="17" lengthAdjust="spacing" textLength="71" x="191.75" y="32.7798">resource</text><line style="stroke:#000D19;stroke-width:0.5;" x1="98.5" x2="323.5" y1="46.7891" y2="46.7891"/><text fill="#D9B8FF" font-family="sans-serif" font-size="14" font-weight="bold" lengthAdjust="spacing" textLength="29" x="108.5" y="68.7842">age</text><text fill="#D9B8FF" font-family="sans-serif" font-size="14" lengthAdjust="spacing" textLength="66" x="137.5" y="68.7842">: duration</text><text fill="#D9B8FF" font-family="sans-serif" font-size="14" font-weight="bold" lengthAdjust="spacing" textLength="43" x="108.5" y="95.0811">atime</text><text fill="#D9B8FF" font-family="sans-serif" font-size="14" lengthAdjust="spacing" textLength="70" x="151.5" y="95.0811">: datetime</text><text fill="#D9B8FF" font-family="sans-serif" font-size="14" font-weight="bold" lengthAdjust="spacing" textLength="43" x="108.5" y="121.3779">ctime</text><text fill="#D9B8FF" font-family="sans-serif" font-size="14" lengthAdjust="spacing" textLength="70" x="151.5" y="121.3779">: datetime</text><text fill="#D9B8FF" font-family="sans-serif" font-size="14" font-weight="bold" lengthAdjust="spacing" textLength="14" x="108.5" y="147.6748">id</text><text fill="#D9B8FF" font-family="sans-serif" font-size="14" lengthAdjust="spacing" textLength="48" x="122.5" y="147.6748">: string</text><text fill="#D9B8FF" font-family="sans-serif" font-size="14" font-weight="bold" lengthAdjust="spacing" textLength="33" x="108.5" y="173.9717">kind</text><text fill="#D9B8FF" font-family="sans-serif" font-size="14" lengthAdjust="spacing" textLength="48" x="141.5" y="173.9717">: string</text><text fill="#D9B8FF" font-family="sans-serif" font-size="14" font-weight="bold" lengthAdjust="spacing" textLength="90" x="108.5" y="200.2686">last_access</text><text fill="#D9B8FF" font-family="sans-serif" font-size="14" lengthAdjust="spacing" textLength="66" x="198.5" y="200.2686">: duration</text><text fill="#D9B8FF" font-family="sans-serif" font-size="14" font-weight="bold" lengthAdjust="spacing" textLength="90" x="108.5" y="226.5654">last_update</text><text fill="#D9B8FF" font-family="sans-serif" font-size="14" lengthAdjust="spacing" textLength="66" x="198.5" y="226.5654">: duration</text><text fill="#D9B8FF" font-family="sans-serif" font-size="14" font-weight="bold" lengthAdjust="spacing" textLength="48" x="108.5" y="252.8623">mtime</text><text fill="#D9B8FF" font-family="sans-serif" font-size="14" lengthAdjust="spacing" textLength="70" x="156.5" y="252.8623">: datetime</text><text fill="#D9B8FF" font-family="sans-serif" font-size="14" font-weight="bold" lengthAdjust="spacing" textLength="43" x="108.5" y="279.1592">name</text><text fill="#D9B8FF" font-family="sans-serif" font-size="14" lengthAdjust="spacing" textLength="48" x="151.5" y="279.1592">: string</text><text fill="#D9B8FF" font-family="sans-serif" font-size="14" font-weight="bold" lengthAdjust="spacing" textLength="34" x="108.5" y="305.4561">tags</text><text fill="#D9B8FF" font-family="sans-serif" font-size="14" lengthAdjust="spacing" textLength="171" x="142.5" y="305.4561">: dictionary[string, string]</text></g><!--reverse link microsoft_resource to azure_sql_server_database_workload_group--><g id="link_microsoft_resource_azure_sql_server_database_workload_group"><path codeLine="48" d="M211,557.62 C211,590.8 211,617.89 211,659.72 " fill="none" id="microsoft_resource-backto-azure_sql_server_database_workload_group" style="stroke:#FFAF37;stroke-width:2.0;"/><polygon fill="none" points="211,539.62,205,557.62,217,557.62,211,539.62" style="stroke:#FFAF37;stroke-width:2.0;"/></g><!--reverse link resource to microsoft_resource--><g id="link_resource_microsoft_resource"><path codeLine="49" d="M211,336.06 C211,379.66 211,405.98 211,438.42 " fill="none" id="resource-backto-microsoft_resource" style="stroke:#FFAF37;stroke-width:2.0;"/><polygon fill="none" points="211,318.06,205,336.06,217,336.06,211,318.06" style="stroke:#FFAF37;stroke-width:2.0;"/></g><!--SRC=[ZLJBRjim4BpxAmJaPjI0dRHnNFII6YZQIr0qlHK5iI9NDc6HL9PBEqxRVoyfEu5UTdAHv9dXpEnAy5ehpD1KlCyCcXp9Z_n6sme8J7PBv7PBLphABee2Ygjvb_pYBBygk0E3sLSijyXQGbVnSwtbngBtsMM3-Wnoio8Nh3hOCu7raKBB3TMo1EzlcKddWR5HHYtocwBeAhkc5rTgDh_6dioHGZfAfjEfcYswabUZpixzehZNJvZDcakxSuozchs8MdMsPL8qIlO6VUPFTlmEIccxoZuqi1-7JcIHMlZz6fJR9NK1fM_6U4P2n_iAbxsfS76ZYlcW-DifyKYcrMNm50Y5VoY5HzeY2GKCENWKEqURqe4IwNIL_HcDnzfKZXYinF7uOmoXM3J21Xu5eNU198eAuzLo4cZBr-zFyEaUmOU0ljOg5_8IarZRysO3_4cpYD1Uu2FAmDfPmTgW2os_jAJ6DF-EUp5QalEku9UmUWF8i6hDNf7RQX-zuq_X6NZ8h6K1grgY0a7gb91KgyRYyVGSCJc0QTMAZc-x3SGi5Y1b_0Ve9DHCgDInNeCn0paMJFi5nw4FZbgcOq3xNmVktL7pEuuwiB5FVoUJoPi_iL7dNDzmz1y0]--></g></svg>

<svg xmlns="http://www.w3.org/2000/svg" width="422" height="899" viewBox="0 0 422 899"><rect width="408" height="231.867" x="7" y="660.14" fill="#3D176E" rx="2.5" ry="2.5" style="stroke:#000d19;stroke-width:.5"/><circle cx="22" cy="680.034" r="11" fill="#ADD1B2" style="stroke:#181818;stroke-width:1"/><path d="M24.969 685.675q-.578.297-1.219.438-.64.156-1.344.156-2.5 0-3.828-1.64-1.312-1.657-1.312-4.782t1.312-4.781q1.328-1.657 3.828-1.657.703 0 1.344.157.656.156 1.219.453v2.719q-.625-.579-1.219-.844-.594-.281-1.219-.281-1.343 0-2.031 1.078-.687 1.062-.687 3.156t.687 3.172q.688 1.062 2.031 1.062.625 0 1.219-.265.594-.282 1.219-.86z"/><text x="41" y="685.92" fill="#D9B8FF" font-family="Helvetica" font-size="17" textLength="366">azure_sql_server_database_workload_group</text><path d="M8 699.929h406" style="stroke:#000d19;stroke-width:.5"/><text x="18" y="721.924" fill="#D9B8FF" font-family="sans-serif" font-size="14" font-weight="bold" textLength="89">importance</text><text x="107" y="721.924" fill="#D9B8FF" font-family="sans-serif" font-size="14" textLength="48">: string</text><text x="18" y="748.221" fill="#D9B8FF" font-family="sans-serif" font-size="14" font-weight="bold" textLength="180">max_resource_percent</text><text x="198" y="748.221" fill="#D9B8FF" font-family="sans-serif" font-size="14" textLength="44">: int64</text><text x="18" y="774.518" fill="#D9B8FF" font-family="sans-serif" font-size="14" font-weight="bold" textLength="283">max_resource_percent_per_request</text><text x="301" y="774.518" fill="#D9B8FF" font-family="sans-serif" font-size="14" textLength="57">: double</text><text x="18" y="800.815" fill="#D9B8FF" font-family="sans-serif" font-size="14" font-weight="bold" textLength="176">min_resource_percent</text><text x="194" y="800.815" fill="#D9B8FF" font-family="sans-serif" font-size="14" textLength="44">: int64</text><text x="18" y="827.112" fill="#D9B8FF" font-family="sans-serif" font-size="14" font-weight="bold" textLength="279">min_resource_percent_per_request</text><text x="297" y="827.112" fill="#D9B8FF" font-family="sans-serif" font-size="14" textLength="57">: double</text><text x="18" y="853.409" fill="#D9B8FF" font-family="sans-serif" font-size="14" font-weight="bold" textLength="198">query_execution_timeout</text><text x="216" y="853.409" fill="#D9B8FF" font-family="sans-serif" font-size="14" textLength="44">: int64</text><text x="18" y="879.705" fill="#D9B8FF" font-family="sans-serif" font-size="14" font-weight="bold" textLength="35">type</text><text x="53" y="879.705" fill="#D9B8FF" font-family="sans-serif" font-size="14" textLength="48">: string</text><rect width="214" height="100.383" x="104" y="438.76" fill="#3D176E" rx="2.5" ry="2.5" style="stroke:#000d19;stroke-width:.5"/><circle cx="125.3" cy="458.654" r="11" fill="#ADD1B2" style="stroke:#181818;stroke-width:1"/><path d="M128.269 464.295q-.578.297-1.219.438-.64.156-1.344.156-2.5 0-3.828-1.64-1.312-1.657-1.312-4.782t1.312-4.781q1.328-1.656 3.828-1.656.703 0 1.344.156.656.156 1.219.453v2.719q-.625-.579-1.219-.844-.594-.281-1.219-.281-1.344 0-2.031 1.078-.687 1.062-.687 3.156t.687 3.172q.688 1.062 2.031 1.062.625 0 1.219-.265.594-.281 1.219-.86z"/><text x="145.7" y="464.54" fill="#D9B8FF" font-family="Helvetica" font-size="17" textLength="158">microsoft_resource</text><path d="M105 478.549h212" style="stroke:#000d19;stroke-width:.5"/><text x="115" y="500.544" fill="#D9B8FF" font-family="sans-serif" font-size="14" font-weight="bold" textLength="35">etag</text><text x="150" y="500.544" fill="#D9B8FF" font-family="sans-serif" font-size="14" textLength="48">: string</text><text x="115" y="526.841" fill="#D9B8FF" font-family="sans-serif" font-size="14" font-weight="bold" textLength="144">provisioning_state</text><text x="259" y="526.841" fill="#D9B8FF" font-family="sans-serif" font-size="14" textLength="48">: string</text><rect width="227" height="310.758" x="97.5" y="7" fill="#3D176E" rx="2.5" ry="2.5" style="stroke:#000d19;stroke-width:.5"/><circle cx="166.25" cy="26.895" r="11" fill="#ADD1B2" style="stroke:#181818;stroke-width:1"/><path d="M169.219 32.535q-.578.297-1.219.438-.64.156-1.344.156-2.5 0-3.828-1.64-1.312-1.657-1.312-4.782t1.312-4.781q1.328-1.656 3.828-1.656.703 0 1.344.156.656.156 1.219.453v2.719q-.625-.578-1.219-.844-.594-.281-1.219-.281-1.344 0-2.031 1.078-.687 1.062-.687 3.156t.687 3.172q.688 1.062 2.031 1.062.625 0 1.219-.265.594-.281 1.219-.86z"/><text x="191.75" y="32.78" fill="#D9B8FF" font-family="Helvetica" font-size="17" textLength="71">resource</text><path d="M98.5 46.789h225" style="stroke:#000d19;stroke-width:.5"/><text x="108.5" y="68.784" fill="#D9B8FF" font-family="sans-serif" font-size="14" font-weight="bold" textLength="29">age</text><text x="137.5" y="68.784" fill="#D9B8FF" font-family="sans-serif" font-size="14" textLength="66">: duration</text><text x="108.5" y="95.081" fill="#D9B8FF" font-family="sans-serif" font-size="14" font-weight="bold" textLength="43">atime</text><text x="151.5" y="95.081" fill="#D9B8FF" font-family="sans-serif" font-size="14" textLength="70">: datetime</text><text x="108.5" y="121.378" fill="#D9B8FF" font-family="sans-serif" font-size="14" font-weight="bold" textLength="43">ctime</text><text x="151.5" y="121.378" fill="#D9B8FF" font-family="sans-serif" font-size="14" textLength="70">: datetime</text><text x="108.5" y="147.675" fill="#D9B8FF" font-family="sans-serif" font-size="14" font-weight="bold" textLength="14">id</text><text x="122.5" y="147.675" fill="#D9B8FF" font-family="sans-serif" font-size="14" textLength="48">: string</text><text x="108.5" y="173.972" fill="#D9B8FF" font-family="sans-serif" font-size="14" font-weight="bold" textLength="33">kind</text><text x="141.5" y="173.972" fill="#D9B8FF" font-family="sans-serif" font-size="14" textLength="48">: string</text><text x="108.5" y="200.269" fill="#D9B8FF" font-family="sans-serif" font-size="14" font-weight="bold" textLength="90">last_access</text><text x="198.5" y="200.269" fill="#D9B8FF" font-family="sans-serif" font-size="14" textLength="66">: duration</text><text x="108.5" y="226.565" fill="#D9B8FF" font-family="sans-serif" font-size="14" font-weight="bold" textLength="90">last_update</text><text x="198.5" y="226.565" fill="#D9B8FF" font-family="sans-serif" font-size="14" textLength="66">: duration</text><text x="108.5" y="252.862" fill="#D9B8FF" font-family="sans-serif" font-size="14" font-weight="bold" textLength="48">mtime</text><text x="156.5" y="252.862" fill="#D9B8FF" font-family="sans-serif" font-size="14" textLength="70">: datetime</text><text x="108.5" y="279.159" fill="#D9B8FF" font-family="sans-serif" font-size="14" font-weight="bold" textLength="43">name</text><text x="151.5" y="279.159" fill="#D9B8FF" font-family="sans-serif" font-size="14" textLength="48">: string</text><text x="108.5" y="305.456" fill="#D9B8FF" font-family="sans-serif" font-size="14" font-weight="bold" textLength="34">tags</text><text x="142.5" y="305.456" fill="#D9B8FF" font-family="sans-serif" font-size="14" textLength="171">: dictionary[string, string]</text><path fill="none" d="M211 557.62v102.1m0-120.1-6 18h12zm0-203.56v102.36m0-120.36-6 18h12z" style="stroke:#ffaf37;stroke-width:2"/></svg>
